X: 23247
T: Leaves On Lockdown
R: waltz
M: 3/4
K: Gmajor
G|:D2 G G2 A|B2 AB AG|F2 D3 D|D2 D3 G|
F2 A A2 B|c2 Bc BA|G2 E E2 E|B2 A3 A|
D2 G G2 A|B2 AB AG|F2 A3 A|F2 A3 B|dc Bc BA|
GA Bc BA|1 GF GA BA|G3 z2 G:|2 gf ed cA|G3 z2 G||
|:B GG c GG|d GG cB A|F2 A3 A|d2 A3 D|
A FF B FF|c FF AB A|G2 G B2 d|b2 dB cd|
B GG c GG|d GG de d|d2 A3 A|F2 A3 B|dc Bc BA|
GA Bc BA|1 GF GA BA|G3 z2 G:|2 gf ed cA|G6||

